X: 3185
Q: "Strathspey."
M: C
L: 1/16
K: Gm
(DG3) G3B A3c B3d | c3f (c2BA) BG3 G2 ::\
(ga) |\
b3gd3g G3dg3b |
a3fc3f F3cf3a |\
[1 b3gd3g fd3c3B | A3f dcBA BG3 G2 :|\
[2 b3ga3^f g3d=f3c | A3f dcBA BG3 G2 |]


